X:1
T: Tipperary So Far Away
I:
C: W-10
M: 3/4
Z:
R: waltz
K: G
d2| "G"G4 B2| d4 g2| "C"e3 d e2| "D"d4 BA| "G"B2 G2 A2| "C"G4 G2| "G"G6-| G4 B2|
    "G"d4 d2| "D"e4 f2| "Em"g4 g2| "D"f2 e2 d2| "C"e4 e2| e2 d2 B2| "D"d6-| d4 |]
\
B2| "G"d4 d2| "D"e4 f2| "G"g4 g2| "D"f2 e2 d2| "C"e4 e2| "G"e2 d2 B2| "D"d6-| d2 B2 A2|
    "G"G4 B2| d4 g2| "C"e3 d e2| "D"d4 BA| "G"B2 G2 A2| "C"G4 G2| "G"G6-| G4|]
%
